!!!COM: Schiørring, Niels
!!!CDT: 1743-1798
!!!OPR@@DA: Choral-Bog
!!!ONM: 13
!!!OTL@@DA: Den, ſom mig føder, det er Gud min Herre
**kern	**fb	**kern	**kern	**kern	**kern	**kern	**kern	**kern
*part6	*part6	*part6	*part5	*part5	*part4	*part3	*part2	*part1
*staff8	*	*staff7	*staff6	*staff5	*staff4	*staff3	*staff2	*staff1
*clefF4	*	*clefC1	*clefF4	*clefC1	*clefF4	*clefC4	*clefC3	*clefC1
*	*	*	*	*	*	*Trd0c0	*	*
*k[b-]	*	*k[b-]	*k[b-]	*k[b-]	*k[b-]	*k[b-]	*k[b-]	*k[b-]
*F:	*	*F:	*F:	*F:	*F:	*F:	*F:	*F:
*M4/4	*	*M4/4	*M4/4	*M4/4	*M4/4	*M4/4	*M4/4	*M4/4
*met(c)	*	*met(c)	*met(c)	*met(c)	*met(c)	*met(c)	*met(c)	*met(c)
*	*	*	*^	*^	*	*	*	*
2G	.	2g	2B-	2G	2g	2d	2G	2b-	2d	2g
=1	=1	=1	=1	=1	=1	=1	=1	=1	=1	=1
2B-	6	2g	2B-	2B-	2g	2d	2B-	2b-	2d	2g
2G	.	2g	2B-	2G	2g	2d	2G	2b-	2d	2g
=2	=2	=2	=2	=2	=2	=2	=2	=2	=2	=2
2F	6	2d	2A	2F	2d	2d	2F	2a	2d	2d
2E	6	2e	2G	2E	2e	2c#X	2E	2g	2c#X	2e
=3	=3	=3	=3	=3	=3	=3	=3	=3	=3	=3
2D	.	2f	2A	2D	2f	1d	2D	2a	2d	2f
2BB-	6	2g	2G	2BB-	2g	.	2BB-	2g	2d	2g
=4	=4	=4	=4	=4	=4	=4	=4	=4	=4	=4
2C	6 -	2a	2E-X	2C	2a	2c	2C	2e-X	2c	2a
2E-X	6	2g	2G	2E-	2g	2c#X	2E-X	2g	2c#X	2g
=5	=5	=5	=5	=5	=5	=5	=5	=5	=5	=5
1D	#	1f#X	1A	1D	1f#X	1d	1D	1a	1d	1f#X
=6	=6	=6	=6	=6	=6	=6	=6	=6	=6	=6
2GG	.	2g	1ryy	2GG	2B-	2d	2GG	2b-	2d	2g
2GG	8	2b-	.	2GG	2d	4g	2GG	2dd	(4g	2b-
=7	=7	=7	=7	=7	=7	=7	=7	=7	=7	=7
2AA	#	2a	2ryy@	2AA	2c#X	2e	2AA	2cc#X	2e	2a
4BBn	6	2g	4Bn	4BBn	2g	4d	(4BBn	(4bn	(4d	2g
4C#X	.	.	4A	4C#X	.	4e	4C#X)	4a)	4e)	.
=8	=8	=8	=8	=8	=8	=8	=8	=8	=8	=8
2D	.	2f	2F	2D	2f	2A	2D	2f	2A	2f
*	*	*	*	*	*	*	*^	*	*	*
2BB-Xi	.	2d	2F	2BB-Xi	2d	2B-Xi	2B-Xi	2BB-Xi	2f	2B-	2d
=9	=9	=9	=9	=9	=9	=9	=9	=9	=9	=9	=9
2AA	6	2f	2A	2AA	2f	2c	2A	2AA	2a	2c	2f
2GG	nr6	2g	2ryy@	2GG	2B-	2e	2G	2GG	2b-	2e	2g
=10	=10	=10	=10	=10	=10	=10	=10	=10	=10	=10	=10
2FF#X	-7 5	2a	1ryy	2FF#X	2c	2e-X	2F#X	2FF#X	2cc	2e-X	2a
2GG	.	2g	.	2GG	2B-	2d	2G	2GG	2b-	2d	2g
*	*	*	*	*	*	*	*v	*v	*	*	*
=11	=11	=11	=11	=11	=11	=11	=11	=11	=11	=11
1D	#	1f#X	1A	1D	1f#X	1d	1D	1a	1d	1f#X
=12	=12	=12	=12	=12	=12	=12	=12	=12	=12	=12
2GG	.	2g	2ryy@	2GG	2B-	2d	2GG	2b-	2d	2g
2BB-	6	2dd	2d	2B-	2dd	2g	2BB-	2dd	2g	2dd
=13	=13	=13	=13	=13	=13	=13	=13	=13	=13	=13
2AA	6 4 3	2dd	2c	2A	2dd	2f#X	2AA	2cc	2f#X	2dd
*	*	*	*	*	*	*^	*	*	*	*
2GG	.	2dd	2B-	2G	2dd	[2d	2g/	2GG	(4b-	2g	2dd
.	.	.	.	.	.	.	.	.	[4dd)	.	.
=14	=14	=14	=14	=14	=14	=14	=14	=14	=14	=14	=14
2E-X	7	2g	2G	2E-X	2g	4d]	2g\	2E-X	(4dd]	2g	2g
*	*	*	*	*	*	*v	*v	*	*	*	*
2En	-r5	2cc	2B-	2En	2cc	2g	2En	2b-	2g	2cc
=15	=15	=15	=15	=15	=15	=15	=15	=15	=15	=15
*	*	*	*	*	*	*^	*	*	*	*
2F#X	5	2cc	2A	2F#X	2cc	2d	2a/	2F#X	(4a	2a	2cc
.	.	.	.	.	.	.	.	.	4dd)	.	.
*	*	*	*	*	*	*v	*v	*	*	*	*
2G	.	2b-	2d	2G	2b-	2g	2G	2dd	2g	2b-
=16	=16	=16	=16	=16	=16	=16	=16	=16	=16	=16
2C#X	6	2a	2ryy@	1C#X	2e	1e	2C#X	2ee	2e	2a
2C#	5	2g	2A	.	2g	.	2C#	2a	2e	2g
=17	=17	=17	=17	=17	=17	=17	=17	=17	=17	=17
2D	.	1f	2A	2D	1f	2d	(2D	(2a	2d	1f
2AA	6	.	2F	2AA	.	2cni	2AA)	2f)	2c	.
=18	=18	=18	=18	=18	=18	=18	=18	=18	=18	=18
2BB-	.	2d	2F	2BB-	2d	2B-	2BB-	2f	2B-	2d
2BB-	6	2g	2G	2BB-	2g	2d	2BB-	2g	2d	2g
=19	=19	=19	=19	=19	=19	=19	=19	=19	=19	=19
2AA	7	2g	1A	1AA	2g	1c	2AA	2a	2c	2g
2AA	6	2f#X	.	.	2f#X	.	2AA	2a	2c	2f#X
=20	=20	=20	=20	=20	=20	=20	=20	=20	=20	=20
2GG	.	2g	2ryy@	2GG	2B-	2d	2GG	2b-	2d	2g
2E-X	2	2f#X	2A	2E-X	2f#X	2c	2E-X	2a	2c	2f#X
=21	=21	=21	=21	=21	=21	=21	=21	=21	=21	=21
2D	6 4	2g	2B-	2D	2g	1d	2D	2b-	2d	2g
2C	4	2f#X	2A	2C	2f#X	.	2C	2a	2d	2f#X
=22	=22	=22	=22	=22	=22	=22	=22	=22	=22	=22
2BB-	6	2g	2ryy@	2BB-	2B-	2d	2BB-	2b-	2d	2g
*	*	*	*	*	*	*^	*	*	*	*
2AA	6	2a	[2A	2AA	2a	2c	2f#X\	2AA	2cc	(4f#X	2a
.	.	.	.	.	.	.	.	.	.	[4a)	.
=23	=23	=23	=23	=23	=23	=23	=23	=23	=23	=23	=23
1GG	9	1b-	2A]	1GG	1b-	1d	1r	1GG	1dd	(4a]	1b-
.	.	.	.	.	.	.	.	.	.	4d	.
=24	=24	=24	=24	=24	=24	=24	=24	=24	=24	=24	=24
2D	#	2a	2F#X	2D	2a	2d	1r	2D	2dd	2f#X	2a
2G	5	2b-	2G	2G	2b-	4d	.	2G	2g	(4d	2b-
=25	=25	=25	=25	=25	=25	=25	=25	=25	=25	=25	=25
2F	7	2a	2A	2Fni	2a	4e]	1r	2F	2a	(4e]	2a
2C#X	5	2g	2A	2C#X	2g	2e	.	2C#X	2a	2e	2g
=26	=26	=26	=26	=26	=26	=26	=26	=26	=26	=26	=26
2D	.	2f	2F	2D	2f	2A	1r	2D	2f	2A	2f
2BB-	.	2d	2F	2BB-	2d	2B-	.	2BB-	2f	2B-	2d
=27	=27	=27	=27	=27	=27	=27	=27	=27	=27	=27	=27
2AA	6	2f	2A	2AA	2f	2c	1r	2AA	2a	2c	2f
2D	.	2f	2A	2D	2f	2d	.	2D	2a	2d	2f
=28	=28	=28	=28	=28	=28	=28	=28	=28	=28	=28	=28
2GG	6	2g	1ryy	2GG	2B-	2e	1r	2GG	2b-	2e	2g
2GG#X	7 5	2f	.	2GG#X	2Bn	[2d	.	2GG#X	2bn	[2d	2f
=29	=29	=29	=29	=29	=29	=29	=29	=29	=29	=29	=29
1AA	4	1e	2A	1AA	1e	2d]	1r	1AA	(2a	(2d]	1e
=30	=30	=30	=30	=30	=30	=30	=30	=30	=30	=30	=30
2D	#	2d	2F	2D	2d	2A	1r	2D	2f	2d	2d
2BBn	nr5	2dd	2G	2BBn	2dd	2f	.	2BBn	2g	2f	2dd
=31	=31	=31	=31	=31	=31	=31	=31	=31	=31	=31	=31
2C	-	2cc	2G	2C	2cc	2e-X	1r	2C	2g	2e-X	2cc
2C#X	7 5	2b-Xi	[2G	2C#X	2b-Xi	[2en	.	2C#X	[2g	[2en	2b-
=32	=32	=32	=32	=32	=32	=32	=32	=32	=32	=32	=32
2D	9 4	2a	4G]	2D	2a	4e]	1r	2D	(4g]	(4e]	2a
2Cni	4	2f#X	2A	2Cni	2f#X	2d	.	2Cni	2a	2d	2f#X
=33	=33	=33	=33	=33	=33	=33	=33	=33	=33	=33	=33
2BB-	6	2g	1B-	2BB-	2g	1d	1r	2BB-	2b-	2d	2g
2G	.	2b-	.	2G	2b-	.	.	2G	2dd	2g	2b-
=34	=34	=34	=34	=34	=34	=34	=34	=34	=34	=34	=34
2F#X	-7 5	2cc	2A	2F#X	2cc	2e-X	1r	2F#X	2ee-X	2a	2cc
2G	.	2b-	[2G	2G	2b-	2d	.	2G	2dd	[2g	2b-
=35	=35	=35	=35	=35	=35	=35	=35	=35	=35	=35	=35
2C#X	5	1a	2G]	2C#X	1a	2eni	1r	(2C#X	(2eeni	(2g]	1a
2D	#	.	2F#X	2D	.	2d	.	2D)	4dd	2f#X)	.
.	.	.	.	.	.	.	.	.	4cc)	.	.
=36	=36	=36	=36	=36	=36	=36	=36	=36	=36	=36	=36
2GG	.	2g	2G	2GG	2g	2B-	2d/	2GG	2b-	2g	2g
*	*	*	*v	*v	*	*	*	*	*	*	*
*	*	*	*	*v	*v	*v	*	*	*	*
==	==	==	==	==	==	==	==	==
*-	*-	*-	*-	*-	*-	*-	*-	*-
!!!system-decoration: {(s1,s2,s3,s4)}{(s5,s6)}{(s7,s8)}
!!!RDF**kern: i = editorial accidental
!!!AGN: chorale
!!!EED: Derek Remeš
!!!EED2: Victor Phan
!!!END: 2023/11/28
!!!ENC: Wolfgang Drescher
!!!EEV: 2023/11/28
!!!title: @{ONM}. @{OTL}